svgs/1F47F.svg

<svg xmlns="http://www.w3.org/2000/svg" xmlns:xlink="http://www.w3.org/1999/xlink" preserveAspectRatio="none" viewBox="0 0 72 72"><defs><path id="a" fill="#BA68C8" d="M105.9 5.2q-1.4-1.4-3.55-2.1-2.75-.9-3.9.65-.6.85-.1 2.9.25 1.1.8 3 .75 5.15-.75 10.7-1.55 5.65-4.85 9.55-1.3 1.55-5.25 4.65-3.35 2.65-4.4 5.65-1.6 4.55 1.95 9.6 2.4 3.4 6.15 5.3 4.15 2.1 7.95 1.25 4.45-.95 8.15-4.85 3.35-3.5 5-8.2 3.55-10.55 1.05-22.05-2.1-10-8.25-16.05z"/><path id="b" fill="#BA68C8" d="M43 49q3.6-5.15 2-9.65-1.15-3.1-4.45-5.65-3.85-3-5.25-4.6-3.3-3.95-4.8-9.55-1.5-5.6-.75-10.75.55-1.9.8-3 .5-2.05-.1-2.85-1.15-1.6-3.85-.7Q24.35 3 23 4.4q-6.1 6-8.25 16.05-2.5 11.45 1.05 22 1.65 4.7 5 8.25 3.7 3.85 8.15 4.85 3.8.85 7.95-1.25 3.7-1.9 6.1-5.3z"/><path id="c" fill="#BA68C8" d="M36 14Q15.1 14 6.9 33.25 2.4 43.8 2.4 58.05q0 5.45 9.85 9.3Q22.1 71.2 36 71.2t23.75-3.85q9.85-3.85 9.85-9.3 0-14.2-4.5-24.8Q56.9 14 36 14z"/><path id="d" fill="#2F2F2F" d="M28.6 49.1q3.35-2.05 3.8-4.6l-19.3-5.75q-.6 3.3.9 6.5 2 4.25 7.15 5.3 3.85.8 7.45-1.45z"/><path id="e" fill="#FBB817" d="M15.95 15.25q4.5.9 8.8-2.15 3.16-2.229 3.8-4.65L6.9 2q-.612 3.05.8 6.6 2.15 5.45 8.25 6.65z"/><path id="f" fill="#2F2F2F" d="M28.6 49.1q3.35-2.05 3.8-4.6l-19.3-5.75q-.6 3.3.9 6.5 2 4.25 7.15 5.3 3.85.8 7.45-1.45z"/><path id="g" fill="#2F2F2F" d="M86.45 98.8q-1-.65-2.15-.4t-1.75 1.2q-1.45 2.15-4.45 4.15-6 4-14 3.55-8.05-.45-13.6-3.85-4.05-3.4-4.2-3.6-.7-.95-1.8-1.15-1.15-.2-2.1.45-.95.65-1.2 1.8-.2 1.2.45 2.15.5.75 1.35 1.55 1.65 1.7 3.85 3.2 6.95 4.55 16.9 5.15l1.95.05q9.25 0 16.2-5 3.5-2.55 5.35-5.35.65-.95.45-2.1-.25-1.15-1.25-1.8z"/></defs><use transform="translate(-.25) scale(.5625)" xlink:href="#a"/><use transform="translate(-.25) scale(.5625)" xlink:href="#b"/><use xlink:href="#c"/><use transform="scale(-1 1) rotate(5 15.217 -781.429)" xlink:href="#d"/><use transform="matrix(-.56035 .04903 .04903 .56035 58.5 35.35)" xlink:href="#e"/><use transform="rotate(5 51.217 43.084)" xlink:href="#f"/><g><use transform="rotate(5.001 -398.052 172.275) scale(.56249)" xlink:href="#e"/></g><g transform="matrix(.5625 0 0 -.5625 -.25 114.2)"><use xlink:href="#g"/></g></svg>

<svg xmlns="http://www.w3.org/2000/svg" version="1.1" xmlns:xlink="http://www.w3.org/1999/xlink" preserveAspectRatio="none" x="0px" y="0px" width="72px" height="72px" viewBox="0 0 72 72">
<defs>
<g id="Layer0_0_MEMBER_0_MEMBER_0_FILL">
<path fill="#BA68C8" stroke="none" d="
M 105.9 5.2
Q 104.5 3.8 102.35 3.1 99.6 2.2 98.45 3.75 97.85 4.6 98.35 6.65 98.6 7.75 99.15 9.65 99.9 14.8 98.4 20.35 96.85 26 93.55 29.9 92.25 31.45 88.3 34.55 84.95 37.2 83.9 40.2 82.3 44.75 85.85 49.8 88.25 53.2 92 55.1 96.15 57.2 99.95 56.35 104.4 55.4 108.1 51.5 111.45 48 113.1 43.3 116.65 32.75 114.15 21.25 112.05 11.25 105.9 5.2 Z"/>
</g>

<g id="Layer0_0_MEMBER_0_MEMBER_1_FILL">
<path fill="#BA68C8" stroke="none" d="
M 43 49
Q 46.6 43.85 45 39.35 43.85 36.25 40.55 33.7 36.7 30.7 35.3 29.1 32 25.15 30.5 19.55 29 13.95 29.75 8.8 30.3 6.9 30.55 5.8 31.05 3.75 30.45 2.95 29.3 1.35 26.6 2.25 24.35 3 23 4.4 16.9 10.4 14.75 20.45 12.25 31.9 15.8 42.45 17.45 47.15 20.8 50.7 24.5 54.55 28.95 55.55 32.75 56.4 36.9 54.3 40.6 52.4 43 49 Z"/>
</g>

<g id="Layer0_0_MEMBER_1_MEMBER_0_FILL">
<path fill="#BA68C8" stroke="none" d="
M 36 14
Q 15.1 14 6.9 33.25 2.4 43.8 2.4 58.05 2.4 63.5 12.25 67.35 22.1 71.2 36 71.2 49.9 71.2 59.75 67.35 69.6 63.5 69.6 58.05 69.6 43.85 65.1 33.25 56.9 14 36 14 Z"/>
</g>

<g id="Layer0_1_MEMBER_0_MEMBER_0_MEMBER_0_FILL">
<path fill="#2F2F2F" stroke="none" d="
M 28.6 49.1
Q 31.95 47.05 32.4 44.5
L 13.1 38.75
Q 12.5 42.05 14 45.25 16 49.5 21.15 50.55 25 51.35 28.6 49.1 Z"/>
</g>

<g id="An_1F608_svg_Layer_1__Clip_Group__0_Layer1_0_FILL">
<path fill="#FBB817" stroke="none" d="
M 15.95 15.25
Q 20.45 16.15 24.75 13.1 27.9103515625 10.871484375 28.55 8.45
L 6.9 2
Q 6.2880859375 5.0501953125 7.7 8.6 9.85 14.05 15.95 15.25 Z"/>
</g>

<g id="Layer0_1_MEMBER_1_MEMBER_0_MEMBER_0_FILL">
<path fill="#2F2F2F" stroke="none" d="
M 28.6 49.1
Q 31.95 47.05 32.4 44.5
L 13.1 38.75
Q 12.5 42.05 14 45.25 16 49.5 21.15 50.55 25 51.35 28.6 49.1 Z"/>
</g>

<g id="Layer0_2_FILL">
<path fill="#2F2F2F" stroke="none" d="
M 86.45 98.8
Q 85.45 98.15 84.3 98.4 83.15 98.65 82.55 99.6 81.1 101.75 78.1 103.75 72.1 107.75 64.1 107.3 56.05 106.85 50.5 103.45 46.45 100.05 46.3 99.85 45.6 98.9 44.5 98.7 43.35 98.5 42.4 99.15 41.45 99.8 41.2 100.95 41 102.15 41.65 103.1 42.15 103.85 43 104.65 44.65 106.35 46.85 107.85 53.8 112.4 63.75 113
L 65.7 113.05
Q 74.95 113.05 81.9 108.05 85.4 105.5 87.25 102.7 87.9 101.75 87.7 100.6 87.45 99.45 86.45 98.8 Z"/>
</g>
</defs>

<g id="Layer_1">
<g transform="matrix( 0.5625, 0, 0, 0.5625, -0.25,0) ">
<use xlink:href="#Layer0_0_MEMBER_0_MEMBER_0_FILL"/>
</g>

<g transform="matrix( 0.5625, 0, 0, 0.5625, -0.25,0) ">
<use xlink:href="#Layer0_0_MEMBER_0_MEMBER_1_FILL"/>
</g>

<g transform="matrix( 1, 0, 0, 1, 0,0) ">
<use xlink:href="#Layer0_0_MEMBER_1_MEMBER_0_FILL"/>
</g>

<g transform="matrix( -0.9962005615234375, 0.087158203125, 0.087158203125, 0.9962005615234375, 68.05,-4.3) ">
<use xlink:href="#Layer0_1_MEMBER_0_MEMBER_0_MEMBER_0_FILL"/>
</g>

<g transform="matrix( -0.5603485107421875, 0.0490264892578125, 0.0490264892578125, 0.5603485107421875, 58.5,35.35) ">
<g id="Camada_1"/>

<g id="Laver_1">
<g transform="matrix( 1, 0, 0, 1, 0,0) ">
<use xlink:href="#An_1F608_svg_Layer_1__Clip_Group__0_Layer1_0_FILL"/>
</g>
</g>

<g id="Camada_4"/>
</g>

<g transform="matrix( 0.9962005615234375, 0.087158203125, -0.087158203125, 0.9962005615234375, 3.95,-4.3) ">
<use xlink:href="#Layer0_1_MEMBER_1_MEMBER_0_MEMBER_0_FILL"/>
</g>

<g transform="matrix( 0.5603485107421875, 0.0490264892578125, -0.0490264892578125, 0.5603485107421875, 13.5,35.35) ">
<g transform="matrix( 1, 0, 0, 1, 0,0) ">
<use xlink:href="#An_1F608_svg_Layer_1__Clip_Group__0_Layer1_0_FILL"/>
</g>
</g>

<g transform="matrix( 0.5625, 0, 0, -0.5625, -0.25,114.2) ">
<use xlink:href="#Layer0_2_FILL"/>
</g>
</g>
</svg>
